X:8
T:Easy Way Up
M:4/4
L:1/8
R:Reel
C:Gris Sanderson
Q:400
N:We took our agent with us on a little tour around Scotland 
N:once, and on a day off near my home ground we teasingly
N:dragged him up Dollar Glen to see the spectacular Castle 
N:Campbell. Not being a very fit chap he found all this a bit of 
N:a struggle and was not at all pleased on arrival at the top to 
N:discover the existence of a road we could have driven up. 
N:This tune is on the Spyka album.
K:Bm
B2fB baBb|aBfe dBfB|A2BA cABA|eABA cABA|
B2fB baBb|aBfe dfdB|eABA cAcd|1eAed cABA:|2eAed cAAB||
|:E2Bd  cABA|EBBA FDFA|E2BE =cEdE|DdBA FDFA|
ABBd cABA|EBBA FDFA|BEE =cEE dE|1D2dg fdBA:|2D2dg fdBd||
